X: 36339
T: Sean Coghlan's
R: slide
M: 12/8
K: Emixolydian
e3 ecA cee ecA|dfd cec BcB Bcd|
efe ecA cef ecA|1 dfd cec BcB Acd:|2 dfd cec BcB A3||
a2 f ecA cee ecA|dfd cec BcB Bce|
a2 f ecA cef ecA|1 dfd cec BcB Ace:|2 dfd cec BcB A3||

